X:3373
T:Contredanse de Plessala
C:trad
A:Bretagne
O:France
M:3/8
L:1/8
Q:1/4=190
K:F
C|F2 G|A3|GAG|A2 G|A3|GAB|A3|G3|F2G|A3|GAG|F2G|A3|G/2A/2B2|A3|G2A|c3|
|:c3|c3|G/2A/2B2|c/2B/2 A2|G/2F/2 G2|A3|F2A|c3|
c3|c3|G/2A/2B2|c/2B/2A2|G/2A/2G2|1F3|F2A|c3:|2F2 C|F2G|A3|G3|F3||


